X:159
T:Quick Step. RHu.155
S:R.Hughes MS,1823,Whitchurch,Shrops.
N:rest added. Also found (untitled) in Albert Hughes MS
A:Whitchurch, Shropshire
Z:Tony Weatherall 2006
M:2/4
L:1/8
Q:1/4=100
R:Country Dance
K:G
G/B/d/B/ Gg|dddg|fedc|BAGF|!
G/B/d/B/ Gg|dd dg/b/|a/f/g/e/ f/d/e/^c/|ddd2:|!
|:a/f/a/f/ dd|b/g/b/g/ da/b/|c’bag|g/f/e/f/ dB|!
G/B/d/B/ Gg|dd db/c’/|d’/b/c’/a/ b/g/a/f/|ggg””z:|

